X:1
T: Tom and Jerry
C: R-66
C: New England
M: C|
Z:
R: reel
K: D
%
A2| "D"d2fd "A"efge| "D"d2fd "A"efge| "D"dfad' "A"c'bag|1 "D"fgab "A"agfe:|2 "D"fgef d2|]
|: \
AG| "D"FAdA FAdA| "G"GBdB GBdB| "A"ABcd efge|1 fgef "D"dcBA:|2 fgef "D"d2|]
%
